src/assets/header-icons/clock.svg

<svg xmlns="http://www.w3.org/2000/svg" viewBox="0 0 24 24" width="18" height="18" fill="rgba(58,58,156,1)"><path d="M12 22C6.47715 22 2 17.5228 2 12C2 6.47715 6.47715 2 12 2C17.5228 2 22 6.47715 22 12C22 17.5228 17.5228 22 12 22ZM12 20C16.4183 20 20 16.4183 20 12C20 7.58172 16.4183 4 12 4C7.58172 4 4 7.58172 4 12C4 16.4183 7.58172 20 12 20ZM13 12H17V14H11V7H13V12Z"></path></svg>

<svg xmlns="http://www.w3.org/2000/svg" width="18" height="18" fill="rgba(58,58,156,1)" viewBox="0 0 24 24"><path d="M12 22C6.477 22 2 17.523 2 12S6.477 2 12 2s10 4.477 10 10-4.477 10-10 10m0-2a8 8 0 1 0 0-16 8 8 0 0 0 0 16m1-8h4v2h-6V7h2z"/></svg>
